Papirus/22x22/actions/earthquake.svg

<?xml version="1.0" encoding="UTF-8" standalone="no"?>
<!--Created with Inkscape (http://www.inkscape.org/)-->
<svg xmlns:dc="http://purl.org/dc/elements/1.1/" xmlns:cc="http://creativecommons.org/ns#" xmlns:rdf="http://www.w3.org/1999/02/22-rdf-syntax-ns#" xmlns:svg="http://www.w3.org/2000/svg" xmlns="http://www.w3.org/2000/svg" xmlns:sodipodi="http://sodipodi.sourceforge.net/DTD/sodipodi-0.dtd" xmlns:inkscape="http://www.inkscape.org/namespaces/inkscape" width="22" height="22" id="svg3760" version="1.1" inkscape:version="0.91 r13725" sodipodi:docname="earthquake.svg">
    <defs id="defs3762">
        <style type="text/css" id="current-color-scheme">
            .ColorScheme-Text { color:#4d4d4d; } .ColorScheme-Background { color:#eff0f1; } .ColorScheme-Highlight { color:#3daee9; } .ColorScheme-ViewText { color:#31363b; } .ColorScheme-ViewBackground { color:#fcfcfc; } .ColorScheme-ViewHover { color:#93cee9; } .ColorScheme-ViewFocus{ color:#3daee9; } .ColorScheme-ButtonText { color:#31363b; } .ColorScheme-ButtonBackground { color:#eff0f1; } .ColorScheme-ButtonHover { color:#93cee9; } .ColorScheme-ButtonFocus{ color:#3daee9; }
        </style>
    </defs>
    <sodipodi:namedview id="base" pagecolor="#000000" bordercolor="#666666" borderopacity="1.0" inkscape:pageopacity="0.0" inkscape:pageshadow="2" inkscape:zoom="20.08" inkscape:cx="-6.2147483" inkscape:cy="12.254672" inkscape:document-units="px" inkscape:current-layer="layer1" showgrid="false" fit-margin-top="0" fit-margin-left="0" fit-margin-right="0" fit-margin-bottom="0" inkscape:window-width="1600" inkscape:window-height="847" inkscape:window-x="0" inkscape:window-y="30" inkscape:window-maximized="1" inkscape:showpageshadow="false" inkscape:snap-bbox="true" inkscape:object-nodes="true" showguides="false" inkscape:snap-global="false">
        <sodipodi:guide position="4.1796875e-06,21.999997" orientation="22,0" id="guide4116"/>
        <sodipodi:guide position="4.1796875e-06,-2.6953124e-06" orientation="0,22" id="guide4118"/>
        <sodipodi:guide position="22.000004,-2.6953124e-06" orientation="-22,0" id="guide4120"/>
        <sodipodi:guide position="22.000004,21.999997" orientation="0,-22" id="guide4122"/>
        <sodipodi:guide position="2.0000042,19.999997" orientation="18,0" id="guide4124"/>
        <sodipodi:guide position="20.000004,1.9999973" orientation="-18,0" id="guide4128"/>
        <sodipodi:guide position="20.000004,19.999997" orientation="0,-18" id="guide4130"/>
        <sodipodi:guide position="3.0000042,18.999997" orientation="16,0" id="guide4132"/>
        <sodipodi:guide position="3.0000042,2.9999973" orientation="0,16" id="guide4134"/>
        <sodipodi:guide position="19.000004,2.9999973" orientation="-16,0" id="guide4136"/>
        <sodipodi:guide position="19.000004,18.999997" orientation="0,-16" id="guide4138"/>
        <inkscape:grid type="xygrid" id="grid4140"/>
    </sodipodi:namedview>
    <metadata id="metadata3765">
        <rdf:RDF>
            <cc:Work rdf:about="">
                <dc:format>
                    image/svg+xml
                </dc:format>
                <dc:type rdf:resource="http://purl.org/dc/dcmitype/StillImage"/>
                <dc:title/>
            </cc:Work>
        </rdf:RDF>
    </metadata>
    <g inkscape:label="Capa 1" inkscape:groupmode="layer" id="layer1" transform="translate(-553.72253,-583.11926)">
        <path style="fill:#000000;fill-opacity:1;stroke:none;opacity:0.5" d="M 11.132812 4.0078125 C 11.737374 5.6051548 14.274338 12.303118 14.273438 12.302734 L 17.775391 10.552734 L 18 11 C 18 7.178918 14.936766 4.0794568 11.132812 4.0078125 z M 10.646484 4.0175781 C 7.1162356 4.1945488 4.2812315 6.9807849 4.0273438 10.490234 L 7.1875 8.2558594 L 9.6738281 13.230469 L 10.646484 4.0175781 z M 11.285156 7.1855469 L 10.326172 16.769531 L 6.8125 9.7441406 L 4.2578125 11.550781 L 4.0097656 11.201172 C 4.1173248 14.973163 7.2019864 18 11 18 C 14.671907 18 17.677579 15.170579 17.970703 11.574219 L 13.726562 13.695312 L 11.285156 7.1855469 z " transform="translate(553.72253,583.11926)" id="path4149"/>
    </g>
</svg>

<?xml version="1.0" encoding="UTF-8" standalone="no"?>
<!--Created with Inkscape (http://www.inkscape.org/)-->
<svg id="svg3760" xmlns:rdf="http://www.w3.org/1999/02/22-rdf-syntax-ns#" xmlns="http://www.w3.org/2000/svg" height="22" width="22" version="1.1" xmlns:cc="http://creativecommons.org/ns#" xmlns:dc="http://purl.org/dc/elements/1.1/">
 <defs id="defs3762">
 </defs>
 <metadata id="metadata3765">
  <rdf:RDF>
   <cc:Work rdf:about="">
    <dc:format>image/svg+xml</dc:format>
    <dc:type rdf:resource="http://purl.org/dc/dcmitype/StillImage"/>
    <dc:title/>
   </cc:Work>
  </rdf:RDF>
 </metadata>
 <g id="layer1" transform="translate(-553.72 -583.12)">
  <path id="path4149" opacity=".5" d="m11.133 4.0078c0.604 1.5974 3.141 8.2952 3.14 8.2952l3.502-1.75 0.225 0.447c0-3.8211-3.063-6.9205-6.867-6.9922zm-0.487 0.0098c-3.5298 0.1769-6.3648 2.9632-6.6187 6.4724l3.1602-2.2341 2.4863 4.9741 0.9722-9.2124zm0.639 3.1679l-0.959 9.5845-3.5135-7.0259-2.5547 1.8069-0.248-0.35c0.1075 3.772 3.1922 6.799 6.9902 6.799 3.672 0 6.678-2.829 6.971-6.426l-4.244 2.121-2.442-6.5095z" transform="translate(553.72 583.12)"/>
 </g>
</svg>
